!!!COM: Hindemith, Paul
!!!OTL: Violin Concerto
!!!OMV: III: Lebhaft (Lively)
!!!example: 659
!!!work: Hin-70
**kern	**dynam	**kern	**dynam	**kern	**dynam	**kern	**dynam	**kern	**dynam	**kern	**dynam	**kern	**dynam	**kern	**dynam	**kern	**dynam
*part9	*part9	*part8	*part8	*part7	*part7	*part6	*part6	*part5	*part5	*part4	*part4	*part3	*part3	*part2	*part2	*part1	*part1
*staff9	*	*staff8	*	*staff7	*	*staff6	*	*staff5	*	*staff4	*	*staff3	*	*staff2	*	*staff1	*
*I"Contrabass	*	*I"Violoncello	*	*I"Viola	*	*I"Violin II	*	*I"Violin I	*	*I"Horn in F	*	*I"Clarinet in Bb	*	*I"Clarinet in Bb	*	*I"Oboe	*
*I'Cb.	*	*I'Vc.	*	*I'Vla.	*	*I'Vln. II	*	*I'Vln. I	*	*I'Hn.	*	*I'Cl.	*	*I'Cl.	*	*I'Ob.	*
*clefF4	*	*clefF4	*	*clefC3	*	*clefG2	*	*clefG2	*	*clefG2	*	*clefG2	*	*clefG2	*	*clefG2	*
*k[]	*	*k[]	*	*k[]	*	*k[]	*	*k[]	*	*k[]	*	*k[]	*	*k[]	*	*k[]	*
*	*	*	*	*	*	*	*	*	*	*	*	*	*	*	*	*	*
*M2/4	*	*M2/4	*	*M2/4	*	*M2/4	*	*M2/4	*	*M2/4	*	*M2/4	*	*M2/4	*	*M2/4	*
*MM121	*	*MM121	*	*MM121	*	*MM121	*	*MM121	*	*MM121	*	*MM121	*	*MM121	*	*MM121	*
=430	=	=	=	=	=	=	=	=	=	=	=	=	=	=	=	=	=
!LO:TX:t=pizz.	!	!LO:TX:t=pizz.	!	!	!	!	!	!	!	!	!	!	!	!	!	!	!
8FF#X	pp	8FF#XL	pp	8r	.	8r	.	[2fff#X	mf	[2f#X	pp	4B-X	p	4g	p	2r	.
!	!	!	!	!LO:TX:t=pizz.	!	!LO:TX:t=pizz.	!	!	!	!	!	!	!	!	!	!	!
8r	.	8F#XJ	.	8A#X	pp	8c#X	pp	.	.	.	.	.	.	.	.	.	.
8r	.	8r	.	4r	.	4r	.	.	.	.	.	4r	.	4r	.	.	.
8FF#	.	8FF#	.	.	.	.	.	.	.	.	.	.	.	.	.	.	.
=431	=431	=431	=431	=431	=431	=431	=431	=431	=431	=431	=431	=431	=431	=431	=431	=431	=431
4r	.	8EL	.	8BL	.	8dL	.	4fff#]	.	2f#_	.	2r	.	2r	.	2r	.
.	.	8EJ	.	8BJ	.	8dJ	.	.	.	.	.	.	.	.	.	.	.
8r	.	8r	.	4r	.	4r	.	(16fff#XLL	.	.	.	.	.	.	.	.	.
.	.	.	.	.	.	.	.	16ggg#X	.	.	.	.	.	.	.	.	.
8FF#X	.	8FF#X	.	.	.	.	.	16bbb	.	.	.	.	.	.	.	.	.
.	.	.	.	.	.	.	.	16ggg#JJ	.	.	.	.	.	.	.	.	.
=432	=432	=432	=432	=432	=432	=432	=432	=432	=432	=432	=432	=432	=432	=432	=432	=432	=432
4r	.	8D	.	8F#X	.	8c	.	8fff#XL)	.	2f#_	.	2r	.	2r	.	[2ff#X	p
.	.	8r	.	8r	.	8r	.	8ddd#X'J	.	.	.	.	.	.	.	.	.
8FF#X	.	8FF#XL	.	8r	.	8r	.	8ccc#X'L	.	.	.	.	.	.	.	.	.
8r	.	8EJ	.	8A#X	.	8e	.	8gg#X'J)	.	.	.	.	.	.	.	.	.
=433	=433	=433	=433	=433	=433	=433	=433	=433	=433	=433	=433	=433	=433	=433	=433	=433	=433
4r	.	8E	.	8A#X	.	8e	.	8ccc#XL	.	2f#_	.	2r	.	2r	.	4ff#]	.
.	.	8r	.	8r	.	8r	.	(16ccc#L	.	.	.	.	.	.	.	.	.
.	.	.	.	.	.	.	.	16gg#XJJ	.	.	.	.	.	.	.	.	.
8FF#X	.	8FF#XL	.	8r	.	8r	.	8ff#XL)	.	.	.	.	.	.	.	(16ff#XLL	.
.	.	.	.	.	.	.	.	.	.	.	.	.	.	.	.	16gg#X	.
8r	.	8FnJ	.	8An	.	8c#X	.	8cc#XJ)	<	.	.	.	.	.	.	16bb	.
.	.	.	.	.	.	.	.	.	.	.	.	.	.	.	.	16gg#JJ	.
=434	=434	=434	=434	=434	=434	=434	=434	=434	=434	=434	=434	=434	=434	=434	=434	=434	=434
8r	.	8r	.	4r	.	4r	.	(8dd#XL	.	2f#_	.	2r	.	2r	.	8ff#XL)	.
8DD#X	.	8DD#X	.	.	.	.	.	8ggnJ	.	.	.	.	.	.	.	8ee#X'J	.
4r	.	8F#XL	.	8A#XL	.	8f#XL	.	[4aa#X)	.	.	.	.	.	.	.	(8cc#XL	.
.	.	8EnJ	.	8A#J	.	8e#XJ	.	.	.	.	.	.	.	.	.	8g#XJ)	.
=435	=435	=435	=435	=435	=435	=435	=435	=435	=435	=435	=435	=435	=435	=435	=435	=435	=435
8r	.	8r	.	4r	.	4r	.	8aa#L]	.	2f#_	.	2r	.	2r	.	8cc#XL	.
8GG#X	.	8GG#X	.	.	.	.	.	(8aa#XJ	[	.	.	.	.	.	.	(16cc#L	.
.	.	.	.	.	.	.	.	.	.	.	.	.	.	.	.	16g#XJJ	.
4r	.	8D#X	.	8B	.	8d#X	.	8ccc#XL	.	.	.	.	.	.	.	8f#XL)	.
.	.	8r	.	8r	.	8r	.	8aa#J)	.	.	.	.	.	.	.	8c#X'J	.
=436	=436	=436	=436	=436	=436	=436	=436	=436	=436	=436	=436	=436	=436	=436	=436	=436	=436
8FFn	.	8FF#XL	.	8r	.	8r	.	(16aa#XLL	.	2r	.	2r	.	2r	.	(8d#XL	<
.	.	.	.	.	.	.	.	16gg#XJ	.	.	.	.	.	.	.	.	.
8r	.	8DnJ	.	8B	.	8dn	.	8eeJ)	.	.	.	.	.	.	.	8g#XJ	.
4r	.	8D	.	8B	.	8d	.	8r	.	.	.	.	.	.	.	[4a#X)	.
.	.	8r	.	8r	.	8r	.	8ccc#X	>	.	.	.	.	.	.	.	.
=437	=437	=437	=437	=437	=437	=437	=437	=437	=437	=437	=437	=437	=437	=437	=437	=437	=437
8EE	.	8EE-XL	.	8r	.	8r	.	(16bb-XLL	.	2r	.	2r	.	2r	.	8a#L]	.
.	.	.	.	.	.	.	.	16dddJ	.	.	.	.	.	.	.	.	.
8r	.	8AJ	.	8c	.	8d	.	8cccnJ)	.	.	.	.	.	.	.	(8a#XJ	.
8r	.	8r	.	4r	.	4r	.	8r	.	.	.	.	.	.	.	8cc#XL	.
8DD	.	8DD	.	.	.	.	.	8ccc	]]	.	.	.	.	.	.	8a#J)	[[
==	==	==	==	==	==	==	==	==	==	==	==	==	==	==	==	==	==
*-	*-	*-	*-	*-	*-	*-	*-	*-	*-	*-	*-	*-	*-	*-	*-	*-	*-
!!!CDT: 1895/11/16-1963/12/28
!!!CBL: Hanau, Germany
!!!CDL: Frankfurt, Germany
!!!CNT: German
!!!AGN: Orchestral; Concerto
!!!MCN: Mengelberg, Willem
!!!MDT: 1940/03/14
!!!MGN: Concertgebouw Orchestra
!!!MLC: Amsterdam, The Netherlands
!!!MPD: 1940
!!!MPN: Helmann, Ferdinand
!!!ODT: 1939
!!!PDT: 1939
!!!excerpt-start-measure: 430
!!!excerpt-end-measure: 437
!!!excerpt-start-time: 6:33
!!!excerpt-end-time: 6:39
!!!EEV: 2020/01/17
!!!system-decoration: [(s1,s2,s3)]s4[(s5,s6,s7,s8,s9)]
!!!ONB: Converted from MusicXML on 2020/01/17
